;START_OF_HEADER
;HEADER_VERSION:0.1
;FLAVOR:Griffin
;GENERATOR.NAME:Cura_SteamEngine
;GENERATOR.VERSION:5.6.0
;GENERATOR.BUILD_DATE:2023-11-28
;TARGET_MACHINE.NAME:Ultimaker 3
;EXTRUDER_TRAIN.0.INITIAL_TEMPERATURE:200
;EXTRUDER_TRAIN.0.MATERIAL.VOLUME_USED:5938
;EXTRUDER_TRAIN.0.MATERIAL.GUID:506c9f0d-e3aa-4bd4-b2d2-23e2425b1aa9
;EXTRUDER_TRAIN.0.NOZZLE.DIAMETER:0.4
;EXTRUDER_TRAIN.0.NOZZLE.NAME:AA 0.4
;BUILD_PLATE.INITIAL_TEMPERATURE:60
;PRINT.TIME:3434
;PRINT.GROUPS:1
;PRINT.SIZE.MIN.X:9
;PRINT.SIZE.MIN.Y:6
;PRINT.SIZE.MIN.Z:0.2
;PRINT.SIZE.MAX.X:148.885
;PRINT.SIZE.MAX.Y:133.535
;PRINT.SIZE.MAX.Z:25.4
;SLICE_UUID:903596dc-5f94-41e6-a485-b4d27a320732
;END_OF_HEADER
;Generated with Cura_SteamEngine 5.6.0
T0
M82 ;absolute extrusion mode

G92 E0
M190 S60
M109 S200
G0 F15000 X9 Y6 Z2
G280
G1 F1500 E-6.5
;LAYER_COUNT:169
;LAYER:0
M106 S255
M204 S1000
M205 X20 Y20
G1 F600 Z2.2
G0 F15000 X84.963 Y84.748 Z2.2
;TYPE:SKIRT
G1 F600 Z0.2
G1 F1500 E0
G1 F1350 X87.398 Y82.383 E0.04257
G1 X90.17 Y81.478 E0.07914
G1 X143.121 Y81.478 E0.74316
G1 X145.615 Y82.326 E0.77619
G1 X147.98 Y84.761 E0.81876
G1 X148.885 Y87.533 E0.85533
G1 X148.885 Y94.088 E0.93753
G1 X148.511 Y95.806 E0.95958
G1 X147.529 Y97.416 E0.98323
G1 X145.585 Y99.302 E1.0172
G1 X142.824 Y100.197 E1.05359
G1 X136.185 Y100.197 E1.13685
G1 X136.185 Y127.426 E1.47831
G1 X135.811 Y129.144 E1.50036
G1 X134.829 Y130.754 E1.52401
G1 X132.885 Y132.64 E1.55798
G1 X130.124 Y133.535 E1.59437
G1 X102.924 Y133.535 E1.93547
G1 X101.206 Y133.161 E1.95752
G1 X99.596 Y132.179 E1.98117
G1 X97.71 Y130.235 E2.01514
G1 X96.815 Y127.474 E2.05153
G1 X96.815 Y100.197 E2.3936
G1 X90.224 Y100.197 E2.47625
G1 X88.506 Y99.823 E2.4983
G1 X86.896 Y98.841 E2.52195
G1 X85.01 Y96.897 E2.55591
G1 X84.115 Y94.136 E2.59231
G1 X84.115 Y87.242 E2.67877
G1 X84.963 Y84.748 E2.7118
G0 F15000 X85.311 Y84.968
G1 F1350 X87.611 Y82.734 E2.75201
G1 X90.233 Y81.878 E2.7866
G1 X143.054 Y81.878 E3.44899
G1 X145.395 Y82.674 E3.48
G1 X147.629 Y84.974 E3.52021
G1 X148.485 Y87.596 E3.5548
G1 X148.485 Y94.044 E3.63566
G1 X148.134 Y95.657 E3.65636
G1 X147.216 Y97.162 E3.67847
G1 X145.373 Y98.95 E3.71067
G1 X142.76 Y99.797 E3.74511
G1 X135.785 Y99.797 E3.83258
G1 X135.785 Y127.382 E4.17851
G1 X135.434 Y128.995 E4.19921
G1 X134.516 Y130.5 E4.22132
G1 X132.673 Y132.288 E4.25352
G1 X130.06 Y133.135 E4.28797
G1 X102.968 Y133.135 E4.62771
G1 X101.355 Y132.784 E4.64841
G1 X99.85 Y131.866 E4.67052
G1 X98.062 Y130.023 E4.70272
G1 X97.215 Y127.41 E4.73716
G1 X97.215 Y99.797 E5.08344
G1 X90.268 Y99.797 E5.17056
G1 X88.655 Y99.446 E5.19126
G1 X87.15 Y98.528 E5.21337
G1 X85.362 Y96.685 E5.24557
G1 X84.515 Y94.072 E5.28002
G1 X84.515 Y87.309 E5.36483
G1 X85.311 Y84.968 E5.39583
G0 F15000 X85.659 Y85.188
G1 F1350 X87.824 Y83.085 E5.43368
G1 X90.296 Y82.278 E5.46629
G1 X142.987 Y82.278 E6.12706
G1 X145.175 Y83.022 E6.15604
G1 X147.278 Y85.187 E6.19389
G1 X148.085 Y87.659 E6.2265
G1 X148.085 Y94 E6.30602
G1 X147.757 Y95.508 E6.32537
G1 X146.903 Y96.908 E6.34594
G1 X145.161 Y98.598 E6.37637
G1 X142.696 Y99.397 E6.40887
G1 X135.385 Y99.397 E6.50055
G1 X135.385 Y127.338 E6.85094
G1 X135.057 Y128.846 E6.87029
G1 X134.203 Y130.246 E6.89086
G1 X132.461 Y131.936 E6.9213
G1 X129.996 Y132.735 E6.95379
G1 X103.012 Y132.735 E7.29218
G1 X101.504 Y132.407 E7.31153
G1 X100.104 Y131.553 E7.3321
G1 X98.414 Y129.811 E7.36253
G1 X97.615 Y127.346 E7.39503
G1 X97.615 Y99.397 E7.74552
G1 X90.312 Y99.397 E7.8371
G1 X88.804 Y99.069 E7.85646
G1 X87.404 Y98.215 E7.87702
G1 X85.714 Y96.473 E7.90746
G1 X84.915 Y94.008 E7.93995
G1 X84.915 Y87.376 E8.02312
G1 X85.659 Y85.188 E8.0521
G0 F15000 X86.007 Y85.408
G1 F1350 X88.037 Y83.436 E8.08759
G1 X90.359 Y82.678 E8.11822
G1 X142.92 Y82.678 E8.77736
G1 X144.955 Y83.37 E8.80431
G1 X146.927 Y85.4 E8.8398
G1 X147.685 Y87.722 E8.87044
G1 X147.685 Y93.956 E8.94861
G1 X147.38 Y95.359 E8.96662
G1 X146.59 Y96.654 E8.98564
G1 X144.949 Y98.246 E9.01431
G1 X142.632 Y98.997 E9.04486
G1 X134.985 Y98.997 E9.14075
G1 X134.985 Y127.294 E9.49561
G1 X134.68 Y128.697 E9.51361
G1 X133.89 Y129.992 E9.53264
G1 X132.249 Y131.584 E9.56131
G1 X129.932 Y132.335 E9.59185
G1 X103.056 Y132.335 E9.92889
G1 X101.653 Y132.03 E9.94689
G1 X100.358 Y131.24 E9.96591
G1 X98.766 Y129.599 E9.99459
G1 X98.015 Y127.282 E10.02513
G1 X98.015 Y98.997 E10.37983
G1 X90.356 Y98.997 E10.47588
G1 X88.953 Y98.692 E10.49389
G1 X87.658 Y97.902 E10.51291
G1 X86.066 Y96.261 E10.54158
G1 X85.315 Y93.944 E10.57212
G1 X85.315 Y87.443 E10.65365
G1 X86.007 Y85.408 E10.6806
G0 F15000 X86.355 Y85.628
G1 F1350 X88.25 Y83.787 E10.71374
G1 X90.422 Y83.078 E10.74239
G1 X142.853 Y83.078 E11.39989
G1 X144.735 Y83.718 E11.42482
G1 X146.576 Y85.613 E11.45795
G1 X147.285 Y87.785 E11.48661
G1 X147.285 Y93.912 E11.56344
G1 X147.003 Y95.21 E11.5801
G1 X146.277 Y96.4 E11.59758
G1 X144.737 Y97.894 E11.62449
G1 X142.568 Y98.597 E11.65308
G1 X134.585 Y98.597 E11.75319
G1 X134.585 Y127.25 E12.11251
G1 X134.303 Y128.548 E12.12916
G1 X133.577 Y129.738 E12.14665
G1 X132.037 Y131.232 E12.17355
G1 X129.868 Y131.935 E12.20215
G1 X103.1 Y131.935 E12.53783
G1 X101.802 Y131.653 E12.55448
G1 X100.612 Y130.927 E12.57196
G1 X99.118 Y129.387 E12.59887
G1 X98.415 Y127.218 E12.62746
G1 X98.415 Y98.597 E12.98638
G1 X90.4 Y98.597 E13.08689
G1 X89.102 Y98.315 E13.10355
G1 X87.912 Y97.589 E13.12103
G1 X86.418 Y96.049 E13.14794
G1 X85.715 Y93.88 E13.17653
G1 X85.715 Y87.51 E13.25641
G1 X86.355 Y85.628 E13.28134
G0 F15000 X86.703 Y85.848
G1 F1350 X88.463 Y84.138 E13.31211
G1 X90.485 Y83.478 E13.33879
G1 X142.786 Y83.478 E13.99466
G1 X144.515 Y84.066 E14.01756
G1 X146.225 Y85.826 E14.04834
G1 X146.885 Y87.848 E14.07501
G1 X146.885 Y93.868 E14.1505
G1 X146.626 Y95.061 E14.16581
G1 X145.964 Y96.146 E14.18175
G1 X144.525 Y97.542 E14.20689
G1 X142.504 Y98.197 E14.23353
G1 X134.185 Y98.197 E14.33786
G1 X134.185 Y127.206 E14.70164
G1 X133.926 Y128.399 E14.71695
G1 X133.264 Y129.484 E14.73289
G1 X131.825 Y130.88 E14.75803
G1 X129.804 Y131.535 E14.78467
G1 X103.144 Y131.535 E15.119
G1 X101.951 Y131.276 E15.13431
G1 X100.866 Y130.614 E15.15025
G1 X99.47 Y129.175 E15.17539
G1 X98.815 Y127.154 E15.20203
G1 X98.815 Y98.197 E15.56516
G1 X90.444 Y98.197 E15.67014
G1 X89.251 Y97.938 E15.68545
G1 X88.166 Y97.276 E15.70139
G1 X86.77 Y95.837 E15.72653
G1 X86.115 Y93.816 E15.75317
G1 X86.115 Y87.577 E15.83141
G1 X86.703 Y85.848 E15.85431
G0 F15000 X87.051 Y86.068
G1 F1350 X88.676 Y84.489 E15.88273
G1 X90.548 Y83.878 E15.90742
G1 X142.719 Y83.878 E16.56166
G1 X144.295 Y84.414 E16.58254
G1 X145.874 Y86.039 E16.61095
G1 X146.485 Y87.911 E16.63565
G1 X146.485 Y93.824 E16.7098
G1 X146.249 Y94.912 E16.72376
G1 X145.651 Y95.892 E16.73816
G1 X144.313 Y97.19 E16.76153
G1 X142.44 Y97.797 E16.78622
G1 X133.785 Y97.797 E16.89476
G1 X133.785 Y127.162 E17.26301
G1 X133.549 Y128.25 E17.27697
G1 X132.951 Y129.23 E17.29137
G1 X131.613 Y130.528 E17.31474
G1 X129.74 Y131.135 E17.33944
G1 X103.188 Y131.135 E17.67241
G1 X102.1 Y130.899 E17.68637
G1 X101.12 Y130.301 E17.70077
G1 X99.822 Y128.963 E17.72414
G1 X99.215 Y127.09 E17.74883
G1 X99.215 Y97.797 E18.11618
G1 X90.488 Y97.797 E18.22562
G1 X89.4 Y97.561 E18.23958
G1 X88.42 Y96.963 E18.25398
G1 X87.122 Y95.625 E18.27735
G1 X86.515 Y93.752 E18.30204
G1 X86.515 Y87.644 E18.37864
G1 X87.051 Y86.068 E18.39952
G0 F15000 X87.399 Y86.288
G1 F1350 X88.889 Y84.84 E18.42557
G1 X90.611 Y84.278 E18.44829
G1 X142.652 Y84.278 E19.1009
G1 X144.075 Y84.762 E19.11975
G1 X145.523 Y86.252 E19.1458
G1 X146.085 Y87.974 E19.16852
G1 X146.085 Y93.78 E19.24133
G1 X145.872 Y94.761 E19.25392
G1 X145.336 Y95.64 E19.26683
G1 X144.1 Y96.839 E19.28842
G1 X142.379 Y97.397 E19.31111
G1 X133.385 Y97.397 E19.4239
G1 X133.385 Y127.118 E19.79661
G1 X133.172 Y128.099 E19.8092
G1 X132.636 Y128.978 E19.82211
G1 X131.4 Y130.177 E19.84371
G1 X129.679 Y130.735 E19.86639
G1 X103.232 Y130.735 E20.19805
G1 X102.251 Y130.522 E20.21064
G1 X101.372 Y129.986 E20.22355
G1 X100.173 Y128.75 E20.24514
G1 X99.615 Y127.029 E20.26783
G1 X99.615 Y97.397 E20.63943
G1 X90.532 Y97.397 E20.75333
G1 X89.551 Y97.184 E20.76592
G1 X88.672 Y96.648 E20.77883
G1 X87.473 Y95.412 E20.80043
G1 X86.915 Y93.691 E20.82311
G1 X86.915 Y87.711 E20.8981
G1 X87.399 Y86.288 E20.91695
G0 F15000 X87.747 Y86.508
G1 F1350 X89.102 Y85.191 E20.94065
G1 X90.674 Y84.678 E20.96139
G1 X142.585 Y84.678 E21.61237
G1 X143.855 Y85.11 E21.62919
G1 X145.172 Y86.465 E21.65289
G1 X145.685 Y88.037 E21.67362
G1 X145.685 Y93.736 E21.74509
G1 X145.495 Y94.61 E21.75631
G1 X145.021 Y95.388 E21.76773
G1 X143.887 Y96.488 E21.78755
G1 X142.318 Y96.997 E21.80823
G1 X132.985 Y96.997 E21.92527
G1 X132.985 Y127.074 E22.30245
G1 X132.795 Y127.948 E22.31366
G1 X132.321 Y128.726 E22.32509
G1 X131.187 Y129.826 E22.3449
G1 X129.618 Y130.335 E22.36558
G1 X103.276 Y130.335 E22.69592
G1 X102.402 Y130.145 E22.70714
G1 X101.624 Y129.671 E22.71856
G1 X100.524 Y128.537 E22.73838
G1 X100.015 Y126.968 E22.75906
G1 X100.015 Y96.997 E23.13491
G1 X90.576 Y96.997 E23.25328
G1 X89.702 Y96.807 E23.26449
G1 X88.924 Y96.333 E23.27592
G1 X87.824 Y95.199 E23.29573
G1 X87.315 Y93.63 E23.31642
G1 X87.315 Y87.778 E23.3898
G1 X87.747 Y86.508 E23.40662
G0 F15000 X88.095 Y86.728
G1 F1350 X89.315 Y85.542 E23.42796
G1 X90.737 Y85.078 E23.44672
G1 X142.518 Y85.078 E24.09607
G1 X143.635 Y85.458 E24.11087
G1 X144.821 Y86.678 E24.1322
G1 X145.285 Y88.1 E24.15096
G1 X145.285 Y93.692 E24.22109
G1 X145.118 Y94.459 E24.23093
G1 X144.704 Y95.139 E24.24092
G1 X143.675 Y96.137 E24.25889
G1 X142.257 Y96.597 E24.27759
G1 X132.585 Y96.597 E24.39888
G1 X132.585 Y127.03 E24.78052
G1 X132.418 Y127.797 E24.79036
G1 X132.004 Y128.477 E24.80035
G1 X130.975 Y129.475 E24.81832
G1 X129.557 Y129.935 E24.83702
G1 X103.32 Y129.935 E25.16604
G1 X102.553 Y129.768 E25.17588
G1 X101.873 Y129.354 E25.18587
G1 X100.875 Y128.325 E25.20384
G1 X100.415 Y126.907 E25.22254
G1 X100.415 Y96.597 E25.60263
G1 X90.62 Y96.597 E25.72547
G1 X89.853 Y96.43 E25.73531
G1 X89.173 Y96.016 E25.7453
G1 X88.175 Y94.987 E25.76327
G1 X87.715 Y93.569 E25.78197
G1 X87.715 Y87.845 E25.85375
G1 X88.095 Y86.728 E25.86854
G0 F15000 X88.443 Y86.948
G1 F1350 X89.528 Y85.893 E25.88752
G1 X90.8 Y85.478 E25.9043
G1 X142.451 Y85.478 E26.55202
G1 X143.415 Y85.806 E26.56479
G1 X144.47 Y86.891 E26.58377
G1 X144.885 Y88.163 E26.60055
G1 X144.885 Y93.648 E26.66933
G1 X144.741 Y94.308 E26.6778
G1 X144.387 Y94.89 E26.68635
G1 X143.463 Y95.786 E26.70249
G1 X142.196 Y96.197 E26.71919
G1 X132.185 Y96.197 E26.84473
G1 X132.185 Y126.986 E27.23084
G1 X132.041 Y127.646 E27.23931
G1 X131.687 Y128.228 E27.24785
G1 X130.763 Y129.124 E27.26399
G1 X129.496 Y129.535 E27.2807
G1 X103.364 Y129.535 E27.6084
G1 X102.704 Y129.391 E27.61687
G1 X102.122 Y129.037 E27.62542
G1 X101.226 Y128.113 E27.64156
G1 X100.815 Y126.846 E27.65826
G1 X100.815 Y96.197 E28.04261
G1 X90.664 Y96.197 E28.16991
G1 X90.004 Y96.053 E28.17838
G1 X89.422 Y95.699 E28.18692
G1 X88.526 Y94.775 E28.20306
G1 X88.115 Y93.508 E28.21976
G1 X88.115 Y87.912 E28.28994
G1 X88.443 Y86.948 E28.30271
G0 F15000 X88.791 Y87.168
G1 F1350 X89.741 Y86.244 E28.31933
G1 X90.863 Y85.878 E28.33413
G1 X142.384 Y85.878 E28.98022
G1 X143.195 Y86.154 E28.99096
G1 X144.119 Y87.104 E29.00758
G1 X144.485 Y88.226 E29.02238
G1 X144.485 Y93.604 E29.08983
G1 X144.364 Y94.157 E29.09692
G1 X144.07 Y94.641 E29.10403
G1 X143.251 Y95.435 E29.11833
G1 X142.135 Y95.797 E29.13304
G1 X131.785 Y95.797 E29.26284
G1 X131.785 Y126.942 E29.65341
G1 X131.664 Y127.495 E29.66051
G1 X131.37 Y127.979 E29.66761
G1 X130.551 Y128.773 E29.68191
G1 X129.435 Y129.135 E29.69663
G1 X103.408 Y129.135 E30.02301
G1 X102.855 Y129.014 E30.03011
G1 X102.371 Y128.72 E30.03721
G1 X101.577 Y127.901 E30.05152
G1 X101.215 Y126.785 E30.06623
G1 X101.215 Y95.797 E30.45483
G1 X90.708 Y95.797 E30.58659
G1 X90.155 Y95.676 E30.59369
G1 X89.671 Y95.382 E30.60079
G1 X88.877 Y94.563 E30.6151
G1 X88.515 Y93.447 E30.62981
G1 X88.515 Y87.979 E30.69838
G1 X88.791 Y87.168 E30.70913
G0 F15000 X89.139 Y87.388
G1 F1350 X89.954 Y86.595 E30.72339
G1 X90.926 Y86.278 E30.73621
G1 X142.317 Y86.278 E31.38067
G1 X142.975 Y86.502 E31.38939
G1 X143.768 Y87.317 E31.40365
G1 X144.085 Y88.289 E31.41647
G1 X144.085 Y93.604 E31.48312
G1 X143.975 Y94.064 E31.48905
G1 X143.792 Y94.354 E31.49335
G1 X143.04 Y95.083 E31.50649
G1 X142.073 Y95.397 E31.51923
G1 X131.385 Y95.397 E31.65327
G1 X131.385 Y126.942 E32.04885
G1 X131.275 Y127.402 E32.05478
G1 X131.092 Y127.692 E32.05908
G1 X130.34 Y128.421 E32.07222
G1 X129.373 Y128.735 E32.08497
G1 X103.408 Y128.735 E32.41058
G1 X102.948 Y128.625 E32.41651
G1 X102.658 Y128.442 E32.42081
G1 X101.929 Y127.69 E32.43394
G1 X101.615 Y126.723 E32.44669
G1 X101.615 Y95.397 E32.83953
G1 X90.708 Y95.397 E32.97631
G1 X90.248 Y95.287 E32.98224
G1 X89.958 Y95.104 E32.98654
G1 X89.229 Y94.352 E32.99968
G1 X88.915 Y93.385 E33.01243
G1 X88.915 Y88.046 E33.07938
G1 X89.139 Y87.388 E33.0881
G0 F15000 X89.487 Y87.608
G1 F1350 X90.167 Y86.946 E33.1
G1 X90.989 Y86.678 E33.11084
G1 X142.25 Y86.678 E33.75367
G1 X142.755 Y86.85 E33.76036
G1 X143.417 Y87.53 E33.77226
G1 X143.685 Y88.352 E33.78311
G1 X143.685 Y93.564 E33.84847
G1 X143.626 Y93.868 E33.85235
G1 X143.514 Y94.067 E33.85521
G1 X142.829 Y94.731 E33.86718
G1 X142.011 Y94.997 E33.87796
G1 X130.985 Y94.997 E34.01623
G1 X130.985 Y126.902 E34.41633
G1 X130.926 Y127.206 E34.42022
G1 X130.814 Y127.405 E34.42308
G1 X130.129 Y128.069 E34.43504
G1 X129.311 Y128.335 E34.44583
G1 X103.448 Y128.335 E34.77016
G1 X103.144 Y128.276 E34.77405
G1 X102.945 Y128.164 E34.77691
G1 X102.281 Y127.479 E34.78887
G1 X102.015 Y126.661 E34.79966
G1 X102.015 Y94.997 E35.19674
G1 X90.748 Y94.997 E35.33803
G1 X90.444 Y94.938 E35.34191
G1 X90.245 Y94.826 E35.34478
G1 X89.581 Y94.141 E35.35674
G1 X89.315 Y93.323 E35.36753
G1 X89.315 Y88.113 E35.43286
G1 X89.487 Y87.608 E35.43955
G0 F15000 X89.766 Y87.895
G1 F1350 X90.38 Y87.297 E35.4503
G1 X91.052 Y87.078 E35.45917
G1 X142.25 Y87.078 E36.10121
G1 X142.468 Y87.129 E36.10401
G1 X143.066 Y87.743 E36.11476
G1 X143.285 Y88.415 E36.12363
G1 X143.285 Y93.564 E36.1882
G1 X143.236 Y93.78 E36.19097
G1 X142.618 Y94.379 E36.20177
G1 X141.948 Y94.597 E36.2106
G1 X130.585 Y94.597 E36.3531
G1 X130.585 Y126.902 E36.75822
G1 X130.536 Y127.118 E36.76099
G1 X129.918 Y127.717 E36.77179
G1 X129.248 Y127.935 E36.78062
G1 X103.448 Y127.935 E37.10416
G1 X103.232 Y127.886 E37.10694
G1 X102.633 Y127.268 E37.11773
G1 X102.415 Y126.598 E37.12657
G1 X102.415 Y94.597 E37.52787
G1 X90.748 Y94.597 E37.67418
G1 X90.532 Y94.548 E37.67696
G1 X89.933 Y93.93 E37.68775
G1 X89.715 Y93.26 E37.69659
G1 X89.715 Y88.113 E37.76113
G1 X89.766 Y87.895 E37.76394
G0 F15000 X90.115 Y88.113
G1 F1350 X90.115 Y93.197 E37.8277
G1 X90.285 Y93.719 E37.83458
G1 X90.748 Y94.197 E37.84293
G1 X102.815 Y94.197 E37.99425
G1 X102.815 Y126.535 E38.39978
G1 X102.985 Y127.057 E38.40667
G1 X103.448 Y127.535 E38.41501
G1 X129.185 Y127.535 E38.73776
G1 X129.707 Y127.365 E38.74465
G1 X130.185 Y126.902 E38.75299
G1 X130.185 Y94.197 E39.16313
G1 X141.885 Y94.197 E39.30985
G1 X142.407 Y94.027 E39.31673
G1 X142.885 Y93.564 E39.32508
G1 X142.885 Y88.478 E39.38886
G1 X142.715 Y87.956 E39.39574
G1 X142.25 Y87.478 E39.4041
G1 X91.115 Y87.478 E40.04536
G1 X90.593 Y87.648 E40.05224
G1 X90.115 Y88.113 E40.0606
G0 F15000 X90.915 Y88.379
G1 F1350 X91.115 Y88.278 E40.06341
G1 X141.984 Y88.278 E40.70133
G1 X142.085 Y88.478 E40.70414
G1 X142.085 Y93.296 E40.76456
G1 X141.885 Y93.397 E40.76737
G1 X129.385 Y93.397 E40.92412
G1 X129.385 Y126.634 E41.34093
G1 X129.185 Y126.735 E41.34374
